d1 $(69~>)$slowspread iter[1,3,2]$rev$slow 9$slowspread striate[24,96,48]$s"bev"#cut"1"#speed"0.5"#pan(slow 3$rand)#gain"1.7"
d1 $slowspread iter[1,3,2]$(69~>)$rev$slow 9$slowspread striate[24,96,48]$s"bev"#cut"1"#speed"0.5"#pan(slow 3$rand)#gain"1.7"
cps(-1)
cps 1
48/2
hush
