d1 $ slowspread slow [16,32,64,128] $ degradeBy 0.0 $ (444<~) $ s "arpy*8" # up "-29 -36 -33 -34 -25 -31 -34 -28" # pan(density 4 $ choose[0,0.125,0.25,0.375,0.5,0.625,0.75,0.875,1]) # cutoff (scale 200 20000 $ rand) # attack (scale 2 4 $ rand) # hold "1" # release "2"
d2 $ slowspread slow [64,128] $ degradeBy 0.0 $ (222<~) $ s "arpy*12" # up"-9 -5 -1 -12 -1 -7  -10 -12 -9 -4 -12" # pan (density 8 $ choose[0,0.125,0.27,0.375,0.5,0.625,0.75,0.875,1]) # cutoff (scale 200 15000 $ rand) # attack (scale 0 2 $ rand) # attack (scale 0 2 $ rand) # hold "2" # release "2"
d3 $ slowspread slow [32,64,128] $ degradeBy 0.0 $ (333<~) $ s "arpy*10" # up "-24 -21 -19  -16 -17 -24 -13 -19 -21" # pan(density 32 $ choose[0,0.125,0.26,0.375,0.5,0.625,0.75,0.875,1]) # cutoff (scale 200 20000 $ rand) # attack (scale 1 3 $ rand) # attack (scale 1 3 $ rand) # hold "1" # release "2"
d4 $ slowspread slow [64,128,256] $ degradeBy 0.0 $ s "arpy*14" # up "0 3 2 7 5 3 8 11 5 7 2 8 3" # pan(density 16 $ choose[0,0.125,0.25,0.375,0.5,0.625,0.75,0.875,1]) # cutoff (scale 200 10000 $ rand) # attack (scale 0 1 $ rand) # attack (scale 0 1 $ rand) # hold "2" # release "2"
d5 $ slowspread density [8,16,32] $ degradeBy 0.95 $ (555<~) $ s "a*2" # n (choose[0,1,2,3,60])# pan(density 33 $ choose[0,0.125,0.25,0.375,0.5,0.625,0.75,0.875,1]) # cutoff (scale 20 5000 $ rand) # cut "1"  # gain (density 34 $ scale 0 1.0 $ rand)  # attack "0" # release (density 35 $ scale 0.004 1 $ rand) # end (density 36 $ scale 0.004 1 $ rand) # loop "3000"
d6 $ slowspread density [8,16,32] $ degradeBy 0.99 $ (666<~) $ s "303*2" # n (choose[2]) # up (choose[0,2,3])# pan(density 32 $ choose[0,0.125,0.25,0.375,0.5,0.625,0.75,0.875,1]) # cutoff (scale 20 5000 $ rand) # cut "1"  # gain (density 29 $ scale 0 1.0 $ rand)  # attack "0" # release (density 30 $ scale 0.004 1 $ rand) # end (density 31 $ scale 0.004 1 $ rand) # loop "3000"

hush

0,1,2,3,60,83,31,56,51
