d1 $ slowspread slow [1,1.5,1.125] $ degradeBy 0.2 $ slowspread density [12,6,3,1.5,0.75,0.375,0.25,0.1666] $ randcat [sound "{a:56 a:64 a:34}%2",sound "{a:3}%1",sound "{a:5}%1",sound "{a:8}%1",sound "{a:51 a:57 a:59}%1",sound "{a:67 a:21 a:34}%1",sound "{a:71 a:83}%1",sound "{a:23 a:62}%1",sound "{a:55}%1",sound "{a:53}%1",sound "{a:49 a:56}%1",sound "{a:49 a:42}%1",sound "{a:22 a:51 a:2}%1",sound "{a:31 a:34}%1",sound "{a:53 a:36}%1",sound "{a:42}%1",sound "{a:103}%1"] # cut (density 3 $ choose[0,0,1]) # pan (density 4 $ choose[0,0.1 .. 1]) # end (density 5 $ choose[0.1,0.2 .. 1]) # gain (density 6 $ choose[0.7,0.8 .. 2.4]) # cutoff (density 7 $ scale 10000 20000 $ rand)
m1 $ slowspread slow [1,1.5,1.125] $ degradeBy 0.1 $ slowspread density [12,6,3,1.5,0.75,0.375,0.25,0.1666] $ randcat [n "{a0 c1 gs1}%2",n "{a2}%1",n "{a4}%1",n "{a3}%1",n "{a4 d5 g4}%1",n "{d1 f2 e2}%1",n "{d1 a1}%1",n "{d2 f3}%1",n "{d3}%1",n "{d3}%1",n "{g4 e5}%1",n "{f3 c4}%1",n "{e1 g1 a2}%1",n "{f3 a3}%1",n "{f1 g2}%1",n "{f1}%1",n "{f5}%1"] # velocity (density 19 $ scale 0.1 1.0 $ rand) # dur (density 5 $ scale 0.001 4.1 $ rand) # cc0 (density 2 $ scale 0.6 0.8 $ rand) {-algorithm-} # cc1 (density 3 $ scale 0.125 0.25 $ rand) {-feedback-} # cc3 (density 4 $ scale 0.5 1.0 $ rand) {-cutoff-} # cc4 (density 5 $ scale 0.25 1.0 $ rand) {-Op1 EgRate1-} # cc5 (density 6 $ scale 0.25 1.0 $ rand) {-Op2 EgRate1-} # cc6 (density 7 $ scale 0.25 1.0 $ rand) {-Op3 EgRate1-} # cc7 (density 8 $ scale 0.25 1.0 $ rand) {-Op4 EgRate1-} # cc8 (density 9 $ scale 0.25 1.0 $ rand) {-Op5 EgRate1-} # cc9 (density 10 $ scale 0.25 1.0 $ rand) {-Op6 EgRate1-} # cc10 (density 11 $ scale 0.0 1.0 $ rand) {-High room size-} # cc11 (density 12 $ scale 0.0 0.5 $ rand) {-High room damp-} # cc12 (density 13 $ scale 0.0 1.0 $ rand) {-Low room size-} # cc13 (density 14 $ scale 0.0 0.5 $ rand) {-Low room damp-} # cc14 (density 15 $ scale 0.5 1.0 $ rand) {-High room width-} # cc15 (density 16 $ scale 0.5 1.0 $ rand) {-Low room width-} # cc16 (density 17 $ scale 0.0 0.5 $ rand) {-Room wet-} # cc17 (density 18 $ scale 0.5 1.0 $ rand) {-Lowpass-} # cc18 (density 19 $ scale 0.0 1.0 $ rand) {-Op1 Decay-} # cc19 (density 20 $ scale 0.0 1.0 $ rand) {-Op2 Decay-} # cc20 (density 21 $ scale 0.0 1.0 $ rand) {-Op3 Decay-} # cc21 (density 22 $ scale 0.0 1.0 $ rand) {-Op4 Decay-} # cc22 (density 23 $ scale 0.0 1.0 $ rand) {-Op5 Decay-} # cc23 (density 24 $ scale 0.0 1.0 $ rand) {-Op6 Decay-}

let hush = mapM_ ($ silence) [d1,m1]
solo = (>>) hush
hush
