hush
d1 $ sound "odx(3,4)"

d1 $ sound "cp(3,7)"

d1 $ sound "hc(4, 7)"

d1 $ sound "odx(4, 11)"

d1 $ sound "bd(5, 7)"

d1 $ sound "bd(5, 9)"

d1 $ sound "bd(5, 12)"

d1 $ sound "bd(7, 8)"

d1 $ sound "bd(7, 16, 14)"

d1 $ sound "bd(11,24,14)"
