m1 $ randcat [note "{0?}%1",note"{2}%1",note "{3?}%1",note"{5}%1",note "{7?}%1",note"{8}%1",note"{11?}%1",note "{12}%1",note"{14?}%1",note "{15}%1",note"{17?}%1",note "{19}%1",note"{20?}%1",note"{23}%1",note "{24?}%1",note"{26}%1",note "{27?}%1",note"{29}%1",note "{31?}%1",note"{32}%1",note"{35?}%1",note "{0*2}%1",note"{2*2?}%1",note "{3*2}%1",note"{5*2?}%1",note "{7*2}%1",note"{8*2?}%1",note"{11*2}%1",note "{12*2?}%1",note"{14*2}%1",note "{15*2?}%1",note"{17*2}%1",note "{19*2?}%1",note"{20*2}%1",note"{23*2?}%1",note "{24*2}%1",note"{26*2?}%1",note "{27*2}%1",note"{29*2?}%1",note "{31*2}%1",note"{32*2?}%1",note"{35*2}%1",note "{0*4?}%1",note"{2*4}%1",note "{3*4?}%1",note"{5*4}%1",note "{7*4?}%1",note"{8*4}%1",note"{11*4?}%1",note "{12*4}%1",note"{14*2?}%1",note "{15*3}%1",note"{17*3?}%1",note "{19*3}%1",note"{20*3?}%1",note"{23*3}%1",note "{24*3?}%1",note"{26*4}%1",note "{27*3?}%1",note"{29*3}%1",note "{31*3?}%1",note"{32*3}%1",note"{35*3?}%1",note "{0*4}%1",note"{2*4?}%1",note "{3*4?}%1",note"{5*4}%1",note "{7*4}%1",note"{8*4?}%1",note"{11*4}%1",note "{12*4?}%1",note"{14*4}%1",note "{15*4?}%1",note"{17*4}%1",note "{19*4?}%1",note"{20*4}%1",note"{23*4?}%1",note "{24*4}%1",note"{26*4?}%1",note "{27*4}%1",note"{29*4?}%1",note "{31*4}%1",note"{32*4?}%1",note"{35*4}%1",note "{0*5?}%1",note"{2*5?}%1",note "{3*5}%1",note"{5*5?}%1",note "{7*5}%1",note"{8*5?}%1",note"{11*5}%1",note "{12*5?}%1",note"{14*5}%1",note "{15*5?}%1",note"{17*5}%1",note "{19*5?}%1",note"{20*5}%1",note"{23*5?}%1",note "{24*5}%1",note"{26*5?}%1",note "{27*5}%1",note"{29*5?}%1",note "{31*5}%1",note"{32*5?}%1",note"{35*5}%1",note "{0*6?}%1",note"{2*6}%1",note "{3*6?}%1",note"{5*6}%1",note "{7*6?}%1",note"{8*6}%1",note"{11*6?}%1",note "{12*6}%1",note"{14*6?}%1",note "{15*6}%1",note"{17*6?}%1",note "{19*6}%1",note"{20*6?}%1",note"{23*6}%1",note "{24*6?}%1",note"{26*6}%1",note "{27*6?}%1",note"{29*6}%1",note "{31*6?}%1",note"{32*6}%1",note"{35*6?}%1",note "{0*7}%1",note"{2*7?}%1",note "{3*7}%1",note"{5*7?}%1",note "{7*7}%1",note"{8*7?}%1",note"{11*7}%1",note "{12*7?}%1",note"{14*7}%1",note "{15*7?}%1",note"{17*7}%1",note "{19*7}%1",note"{20*7?}%1",note"{23*7}%1",note "{24*7?}%1",note"{26*7}%1",note "{27*7?}%1",note"{29*7}%1",note "{31*7?}%1",note"{32*7}%1",note"{35*7?}%1",note "{0*8}%1",note"{2*8?}%1",note "{3*8}%1",note"{5*8?}%1",note "{7*8}%1",note"{8*8?}%1",note"{11*8}%1",note "{12*8?}%1",note"{14*8}%1",note "{15*8?}%1",note"{17*8}%1",note "{19*8?}%1",note"{20*8}%1",note"{23*8?}%1",note "{24*8}%1",note"{26*8?}%1",note "{27*8}%1",note"{29*8?}%1",note "{31*8}%1",note"{32*8?}%1",note"{35*8}%1",note "{0*9?}%1",note"{2*9}%1",note "{3*9?}%1",note"{5*9}%1",note "{7*9?}%1",note"{8*9}%1",note"{11*9?}%1",note "{12*9}%1",note"{14*9?}%1",note "{15*9}%1",note"{17*9?}%1",note "{19*9}%1",note"{20*9?}%1",note"{23*9}%1",note "{24*9?}%1",note"{26*9}%1",note "{27*9?}%1",note"{29*9}%1",note "{31*9?}%1",note"{32*9}%1",note"{35*9?}%1",note "{0*10}%1",note"{2*10?}%1",note "{3*10}%1",note"{5*10?}%1",note "{7*10}%1",note"{8*10?}%1",note"{11*10}%1",note "{12*10?}%1",note"{14*10}%1",note "{15*10?}%1",note"{17*10}%1",note "{19*10?}%1",note"{20*10}%1",note"{23*10?}%1",note "{24*10}%1",note"{26*10?}%1",note "{27*10}%1",note"{29*10?}%1",note "{31*10}%1",note"{32*10?}%1",note"{35*10}%1",note "{0*11?}%1",note"{2*11}%1",note "{3*11?}%1",note"{5*11}%1",note "{7*11?}%1",note"{8*11}%1",note"{11*11?}%1",note "{12*11}%1",note"{14*11?}%1",note "{15*11}%1",note"{17*11?}%1",note "{19*11}%1",note"{20*11?}%1",note"{23*11}%1",note "{24*11?}%1",note"{26*11}%1",note "{27*11?}%1",note"{29*11}%1",note "{31*11?}%1",note"{32*11}%1",note"{35*11?}%1",note "{0*12}%1",note"{2*12?}%1",note "{3*12}%1",note"{5*12?}%1",note "{7*12}%1",note"{8*12?}%1",note"{11*12}%1",note "{12*12?}%1",note"{14*12}%1",note "{15*12?}%1",note"{17*12}%1",note "{19*12?}%1",note"{20*12}%1",note"{23*12?}%1",note "{24*12}%1",note"{26*12?}%1",note "{27*12}%1",note"{29*12?}%1",note "{31*12}%1",note"{32*12?}%1",note"{35*12}%1",note "{0*13?}%1",note"{2*13}%1",note "{3*13?}%1",note"{5*13}%1",note "{7*13?}%1",note"{8*13}%1",note"{11*13?}%1",note "{12*13}%1",note"{14*13?}%1",note "{15*13}%1",note"{17*13?}%1",note "{19*13}%1",note"{20*13?}%1",note"{23*13}%1",note "{24*13?}%1",note"{26*13}%1",note "{27*13?}%1",note"{29*13}%1",note "{31*13?}%1",note"{32*13}%1",note"{35*13?}%1"] # velocity (scale 0.0 1.0 $ rand)



let hush = mapM_ ($ silence) [m1]
    solo = (>>) hush

   hush
