d1
$ fast (choose[0.125,0.25..4])
$ s "htm"
# attack (slow 0.1 $ scale 2 5 $ rand)
# hold (slow 0.11 $ scale 0 1 $ rand)
# release (slow 0.12 $ scale 1 3 $ rand)
# gain (slow 0.13 $ scale 0.5 1.5 $ rand)
# up (slow 0.14 $ choose [-24,-22,-21,-12,-10,-8,-7,-5,-4,-1,0,2,3,5])
# pan (slow 0.15 $ rand)
# shape (slow 0.16 $ scale 0 0.25 $ rand)
# lpf (slow 0.17 $ scale 4000 20000 $ rand)
# hpf (slow 0.18 $ scale 20 400 $ rand)
# delay 0.0625
# delayt 4
# delayfb 0.5
