d1
$ sometimesBy (1/16) (spreadChoose _fast [1,1.1,1.2,1.3,1.4,1.5,1.6,1.7,1.8,1.9,2])
$ unwrap (discretise (1/4) $ choose [s "sbu", s "srg", s "bch"])
# n (discretise (1/3) $ choose [0..9])
# att (slow 0.1 $ scale 0 2 $ rand)
# hold (slow 0.11 $ scale 0.125 0.5 $ rand)
# rel (slow 0.12 $ scale 0 0.5 $ rand)
