d1 $ slowspread density [0.5,1,2,4,8,16,32] $ degradeBy 0.5 $ (111<~) $ s "rave*2" # n (choose[0,1,2,3,60,83,31,56,51]) # pan (density 33 $ choose[0,0.125,0.25,0.375,0.5,0.625,0.75,0.875,1]) # cutoff (scale 200 20000 $ rand) # cut (choose[0,1,1,1])  # gain (density 34 $ scale 0.5 1.0 $ rand) # attack "0" # release (density 35 $ scale 0.004 4 $ rand) # end (density 36 $ scale 0.04 0.4 $ rand) # loop (scale 0 40 rand)
d2 $ slowspread density [0.25,0.5,1,2,4,8] $ degradeBy 0.9 $ (222<~) $ (randcat [s "gab",s "gab*2"]) # cutoff (scale 20 4000 $ rand) # pan rand # cut  "2"
d3 $ s "ac" # n "3"
d4 $ s "ac*4" # n "2" # gain rand # pan rand
d5 $ (1<~) $ s "ac*8" # n "1" # gain (scale 0.25 1.3 $ rand) # pan rand # shape (scale 0.01 0.75 $ rand)
