import Sound.Tidal.MIDI.Context
import Sound.Tidal.MIDI.Stream
import Sound.Tidal.MIDI.Synth
import Sound.Tidal.MIDI.CC
devs <- midiDevices
displayOutputDevices >>= putStrLn
m1 <- midiStream devs "IAC Driver Bus 1" 1 ccallController
m2 <- midiStream devs "IAC Driver Bus 1" 2 ccallController
let hush = mapM_ ($ silence) [m1,m2,d1,d2,d3,d4,d5,d6,d7,d8,d9]
hush

m1
$ slow 1
$ n "0*2"
# velocity (slow 0.1 $ rand)


# cc0 (slow 0.1 $ rand)
