d1
$ spreadChoose _fast [1]
$ stack [
s "srg:3/5?"
# up (slow 0.1 $ choose [12,24] + choose [0,2,3,5,7,8,11]),
s "srg?",
s "mcb:9?",
s "sbu:1?",
someCyclesBy 0.5 (0.25<~)
$ s "bch" # n (slow 0.1 $ choose [0..16])
# lpf (slow 267 $ scale 20 2
]
# delay 0
# delayfb 0
# delayt (slow 0.11 $ choose [1/8] * choose [1..9])
# room (slow 87 $ scale 0 1 $ sine)
# size (slow 96 $ scale 0 1 $ sine)
# gain 1.8

t2 (xfadeIn 64) $ s "prr:4*2" # orbit 1 # rel 0.19 #gain 0 # pan (slow 200 $ sine)
