d1
$ fast (discretise (1/290) $ choose [9..29])
$ s "pmb:1"
# speed (discretise (1/291) $ slow 0.11 $ scale (-4) (-1) $ rand)
# hpf (slow 0.14 $ scale 20 10000 $ rand)
# pan (discretise (1/145) $ slow 0.12 $ rand)
# gain (slow 0.13 $ scale 0.5 0.75 $ rand)
# att (slow 0.15 $ scale 0 1 $ rand)
# rel (slow 0.16 $ scale 2 4 $ rand)
# hresonance (discretise (1/292) $ slow 0.17 $ scalex 1 0.1 $ rand)  
