hush
d1 $ slowspread slow [6, 4.5, 5.25, 1, 3.75, 5.25, 1.5, 3, 2.25, 5.25] $ s "vi" # pan (density 2 $ choose[0.1, 0.2 .. 0.9]) # up (density 3 $ (choose[4, 3, 1, 0, -2, -7, -17, -23])) # gain (density 4 $ (choose[0.225, 0.45, 0.9]))
d2 $ slowspread slow [5.25, 6, 4.5, 1, 3.75, 1.5, 5.25, 3, 4.5] $ s "vi" # pan (density 5 $ choose[0.1, 0.2 .. 0.9]) # up (density 6 $ (choose[5, 6, 7, 10, 11, 12])) # gain (density 7 $ (choose[0.225, 0.45, 0.9]))
d3 $ slowspread slow [4.5, 5.25, 1, 3.75, 1.5, 4.5, 2.25, 3.75] $ s "vi" # pan (density 8 $ choose[0.1, 0.2 .. 0.9]) # up (density 9 $ (choose[-1, -3, -4, -5, -8, -9, -11, -12])) # gain (density 10 $ (choose[0.225, 0.45, 0.9]))
d4 $ slowspread slow [3.75, 1, 3, 5.25, 1.5, 4.5, 2.25] $ s "vi" # pan (density 11 $ choose[0.1, 0.2 .. 0.9]) # up (density 12 $ (choose[-13, -14, -15, -18, -19, -20])) # gain (density 13 $ (choose[0.225, 0.45, 0.9]))
