d1 $ density 1 $ (654 <~) $ degradeBy 0.4 $ s "{ce}" # n (irand 210) # attack (scale 0.0 8.0 $ rand) # hold (scale 2.0 12.0 $ rand) # release (scale 2.0 18.0 $ rand) # begin (choose[0.0,0.1,0.2,0.3,0.4]) # gain (scale 0.5 1.0 $ rand) # pan (scale 0.0 1.0 $ rand) # up (choose[0,0,0,12,-12,-24,-36,-48])
d2 $ density 1 $ (176 <~) $ degradeBy 0.4 $ s "{ce}" # n (irand 210) # attack (scale 0.0 8.0 $ rand) # hold (scale 2.0 12.0 $ rand) # release (scale 2.0 18.0 $ rand) # begin (choose[0.0,0.1,0.2,0.3,0.4]) # gain (scale 0.5 1.0 $ rand) # pan (scale 0.0 1.0 $ rand) # up (choose[0,0,0,12,-12,-24,-36,-48])
d3 $ density 1 $ (439 <~) $ degradeBy 0.4 $ s "{ha}" # n (irand 210) # attack (scale 0.0 8.0 $ rand) # hold (scale 2.0 12.0 $ rand) # release (scale 2.0 18.0 $ rand) # begin (choose[0.0,0.1,0.2,0.3,0.4]) # gain (scale 0.5 1.0 $ rand) # pan (scale 0.0 1.0 $ rand) # up (choose[0,0,0,0,12,-12])
d4 $ density 1 $ (937 <~) $ degradeBy 0.4 $ s "{ha}" # n (irand 210) # attack (scale 0.0 8.0 $ rand) # hold (scale 2.0 12.0 $ rand) # release (scale 2.0 18.0 $ rand) # begin (choose[0.0,0.1,0.2,0.3,0.4]) # gain (scale 0.5 1.0 $ rand) # pan (scale 0.0 1.0 $ rand) # up (choose[0,0,0,0,12,-12])
hush
d1 silence
