d1 $ slow 1.4 $ s "ez/3" # pan "0" # up "-3" # gain "0.75"
d2 $ slow 1.5 $ s "ez/3" # pan "1" # up "-3" # gain "0.75"
d3 $ slowspread density [1.7,1.9 .. 8] $ slowspread density [1.3,1.4 .. 7] $ s "odx" # pan (density 8 rand) # speed (density 9 $ scale (-1) 1 $ rand) # end (density 10 $ scale 0.01 0.5 $ rand) # loop (density 11 $ choose [0,1 .. 15]) # cutoff (density 12 $ scale 20 10000 $ rand) # hcutoff (density 13 $ scale 20 20000 $ rand)
