d2 $ palindrome $ gap 60 $ sound "[drum:2]"

d1 $ every 1 (density 0.4) $ midinote "41 43 48 50 60 55" # s "supersaw"
# gain "0.8"
# sustain "10"


d3 $ every 1 (density 0.2) $ sound "bass2"
# gain "0.7"
# crush "[4 7]"
# speed "[0.3 0.6 0.9]/2"

d1 $ s "bass1*2?"
# begin 0.1
# attack 1.5
# hold 0
# release 1
# pan (slow 0.1 rand)
# up (choose[0,2,3,5,7,8,11] + choose[-36,-24,-12])
# gain 1.4
