let wchoose weights values = choose $ concatMap (\x -> replicate (fst x) (snd x)) (zip weights values)

d1
$ slow 4
$ every 5 (34.25<~)
$ every 4 (3.25<~)
$ every 3 (2.75<~)
$ every 2 (1.75<~)
$ spreadChoose density [0.125,0.25,1]
$ spread slow [1,1,1,1]
$ s "jcp*8?"
# cut (wchoose [4,1][0,1])
# n (slow 0.1 $ choose ([129,131,144,163,168,197]++[198..300]))
# pan (slow 0.11 rand)
# speed (slow 0.12 $ wchoose [1,64][-1,1])
# cutoff (slow 0.13 $ scale 2000 20000 rand)
