d1 $ sound "numbers:1 ~ [alphabet alphabet:12]" # gain "1.4 0.8 0.8 0.9" # attack "0" # release  "1 1 1 0.6" #  up "-6 0 0 0"
d1 $ sound "numbers:2 ~ [alphabet alphabet:12]" # gain "1.3 0.8 0.8 0.9" # attack "0" # release  "1 1 1 0.6" #  up "-6 0 0 0"
d1 $ sound "numbers:3 ~ [alphabet alphabet:12]" # gain "1.3 0.8 0.8 0.9" # attack "0" # release  "1 1 1 0.6" #  up "-6 0 0 0"
hush

d1 $ sound "numbers:6" # gain "1.3" # attack "0" #  up "-3"
d1 $ sound "numbers:7" # gain "1.3" # attack "0" #  up "-3"
