d1 $ slowspread density [4,8,8,8,2,8,8,8,3,8,8,8,1,8,8,8] $ s "[bev~]" # cut "1" # pan (density 9 $ scale 0 1 $ rand) # begin (density 16 $ scale 0.0 0.01 $ rand) #end (density 16 $ scale 0.02 0.2 $ rand)#cutoff (slow 16 $ scale 20 20000 $ saw1)#gain"1.3"
d2 $ slowspread density [4,8,8,8,2,8,8,8,3,8,8,8,1,8,8,8] $ randcat [s "odx~",s "cp~",s "hc~"] # cut "2" # pan (density 9 $ scale 1 0 $ rand) #hcutoff (slow 16 $ scale 20 200 $ saw1)

hush
