d1 $ slowspread slow [16, 12, 14, 2.666, 10, 14, 4, 8, 6, 14] $ s "vi" # pan (density 2 $ choose[0.2, 0.3 .. 0.8]) # up (density 3 $ (choose[4, 3, 1, 0, -2, -7, -17, -11])) # gain (density 4 $ (choose[0.45, 0.9]))
d2 $ slowspread slow [14, 16, 12, 2.666, 10, 4, 14, 8, 12] $ s "vi" # pan (density 5 $ choose[0.2, 0.3 .. 0.8]) # up (density 6 $ (choose[5, 6, 7, 10, 11, 12])) # gain (density 7 $ (choose[0.45, 0.9]))
d3 $ slowspread slow [12, 14, 2.666, 10, 4, 12, 6, 10] $ s "vi" # pan (density 8 $ choose[0.2, 0.3 .. 0.8]) # up (density 9 $ (choose[-1, -3, -4, -5, -8, -9, -11, -12])) # gain (density 10 $ (choose[0.45, 0.9]))
d4 $ slowspread slow [10, 2.666, 8, 14, 4, 12, 6] $ s "vi" # pan (density 11 $ choose[0.2, 0.3 .. 0.8]) # up (density 12 $ (choose[-13, -14, -15, -18, -19, -8])) # gain (density 13 $ (choose[0.45, 0.9]))
hush
