d1 $ degradeBy 0.75 $ slow 2 $ slowspread density [1,1,1.5,1.25,0.75,1.5,1.5] $ slowspread density [1,1,1,1,1,1,1,1.25] $ s "{pds?}%8" # cut "1" # n "42" # attack "0.5" # hold "0" # release (choose[0.1,0.2..0.6]) # up "0 -2 -5 -3 -7 -10" # pan rand # gain "1" # cutoff (density 2 $ scale 200 20000 $ rand)

hush
