d1 $ slowspread slow [0.5,0.75,1.0,1.25,1.5,1.75,2.0] $ slowspread density [0.5,0.75,1.0,1.25]$ s "{a,ac,808}%8" # n (density 8 $ choose [0,1..40]) # pan (density 9 $ rand) # cut (density 9 $ choose [0,1])
d2 $ slowspread slow [0.5,0.75,1.0,1.25,1.5,1.75,2.0] $ slowspread density [0.5,0.75,1.0,1.25]$ s "{303}%8" # n (density 8 $ choose [2,3]) # pan (density 9 $ rand) # cut (density 9 $ choose [2])  # up  (choose[0,2,3,5,7,9,11]) # gain "0.95"
hush
