m1 $ slowspread density [3.5,2,2.5,1.5,2.25,2,1.25] $ slowspread density [1,3.5,2,2.5,1.5,3,4.5,4] $ randcat[n "-27",n "-24",n "-21",n "-19",n "-16",n "-13",n "-10",n "-7",n "-4",n "-1",n "2",n "5",n "8",n "11",n "14",n "17",n "20",n "23",n "27"] #velocity (slow 0.37 $ scale 0 1 $ rand) #dur (slow 0.36 $ scale 0 1 $ rand) #cc0 (slow 0.19 $ scale 0 1 $ rand) #cc1 (slow 0.20 $ scale 0 1 $ rand) #cc2 (slow 0.21 $ scale 0 1 $ rand)
