m1 $ note "{0~~~~~~~~~5~~~~~~~~2~~~~~~~~~~~~~~~~7~~~~~~~~3~~~~~~~5~~~~~~~11~~~~~~~~~~8~~~~~~,14~~~~~~~12~~~~~~~17~~~19~~~~~~~~~15~~~~~~~~17~~~~23~~~~~~~~20~~~~~,31~~24~~~~~~~~~24~~~~~~~~~~26~~~~~~~~~~~~~~29~~~~~~~~~~~~~~~~~~~27~~~~~~~~~~~~~~~~~35~~~~~~~~~~~~~~~~~~~~~~~~~~~}%3"

m1 $ note "~"
