d1 $ degradeBy 0.1 $ (808<~) $ density 2.0 $ s  "808*14" # n (irand 15) # shape (slow 66 $ scale 0.0 0.999 sine1) # cutoff (slow 65 $ scale 80 20000 sine1) # pan (choose[0.0,0.1,0.2,0.3,0.4,0.5,0.6,0.7,0.8,0.9,1.0]) # nudge (slow 64 $ scale 0 1.0 sine1) # end (slow 63 $ scale 0.001 1.0 sine1) # attack (slow 62 $ scale 0 1.0 sine1) # hold (slow 61 $ scale 0 1.0 sine1) # release (slow 60 $ scale 0 1.0 sine1) # gain (slow 59 $ scale 2 4.0 sine1)
d2 $ degradeBy 0.1 $ (909<~) $ density 2.1 $ s  "909*14" # n (choose[0,1,2,3,5,6]) # shape (slow 58 $ scale 0.0 0.999 sine1) # cutoff (slow 57 $ scale 80 20000 sine1) # pan (choose[0.0,0.1,0.2,0.3,0.4,0.5,0.6,0.7,0.8,0.9,1.0]) # nudge (slow 56 $ scale 0 1.0 sine1) # end (slow 55 $ scale 0.001 1.0 sine1) # attack (slow 54 $ scale 0 1.0 sine1) # hold (slow 53 $ scale 0 1.0 sine1) # release (slow 52 $ scale 0 1.0 sine1) # gain (slow 51 $ scale 2 4.0 sine1)
d3 $ degradeBy 0.1 $ (606<~) $ density 2.2 $ s  "606*14" # n (irand 5) # shape (slow 50 $ scale 0.0 0.999 sine1) # cutoff (slow 49 $ scale 80 20000 sine1) # pan (choose[0.0,0.1,0.2,0.3,0.4,0.5,0.6,0.7,0.8,0.9,1.0]) # nudge (slow 48 $ scale 0 1.0 sine1) # end (slow 47 $ scale 0.001 1.0 sine1) # attack (slow 46 $ scale 0 1.0 sine1) # hold (slow 45 $ scale 0 1.0 sine1) # release (slow 44 $ scale 0 1.0 sine1) # gain (slow 43 $ scale 2 4.0 sine1) # up "-12"
d4 $ (303<~) $ density 2.3 $ s  "303*14" # n "2" # shape (slow 420 $ scale 0.0 0.999 sine1) # cutoff (slow 410 $ scale 80 20000 sine1) # pan (choose[0.0,0.1,0.2,0.3,0.4,0.5,0.6,0.7,0.8,0.9,1.0]) # nudge (slow 400 $ scale 0 1.0 sine1) # end (slow 390 $ scale 0.001 1.0 sine1) # attack (slow 380 $ scale 0 1.0 sine1) # hold (slow 370 $ scale 0 1.0 sine1) # release (slow 360 $ scale 0 1.0 sine1) # gain (slow 350 $ scale 0.5 2 sine1)
d5 $ degradeBy 0.1 $ (707<~) $ density 2.4 $ s  "707*14" # n (choose[0,2,4,5,6,7,8]) # shape (slow 34 $ scale 0.0 0.999 sine1) # cutoff (slow 33 $ scale 80 20000 sine1) # pan (choose[0.0,0.1,0.2,0.3,0.4,0.5,0.6,0.7,0.8,0.9,1.0]) # nudge (slow 32 $ scale 0 1.0 sine1) # end (slow 31 $ scale 0.001 1.0 sine1) # attack (slow 30 $ scale 0 1.0 sine1) # hold (slow 29 $ scale 0 1.0 sine1) # release (slow 28 $ scale 0 1.0 sine1) # gain (slow 27 $ scale 2 4.0 sine1)


d4 silence
hush
